static/img/d6.svg

<?xml version="1.0" encoding="UTF-8" standalone="no"?>
<svg
   xmlns:dc="http://purl.org/dc/elements/1.1/"
   xmlns:cc="http://creativecommons.org/ns#"
   xmlns:rdf="http://www.w3.org/1999/02/22-rdf-syntax-ns#"
   xmlns:svg="http://www.w3.org/2000/svg"
   xmlns="http://www.w3.org/2000/svg"
   id="svg8435"
   version="1.1"
   viewBox="0 0 29.104166 29.104166"
   height="110"
   width="110">
  <defs
     id="defs8429" />
  <metadata
     id="metadata8432">
    <rdf:RDF>
      <cc:Work
         rdf:about="">
        <dc:format>image/svg+xml</dc:format>
        <dc:type
           rdf:resource="http://purl.org/dc/dcmitype/StillImage" />
        <dc:title></dc:title>
      </cc:Work>
    </rdf:RDF>
  </metadata>
  <path
     style="fill:#030000;fill-opacity:1;stroke:none;stroke-width:0;stroke-miterlimit:4;stroke-dasharray:none;stroke-dashoffset:0;stroke-opacity:0"
     d="M 0.45986855,-1.3636363e-8 3.3702851,2.9104166 H 25.62474 L 28.535157,-1.3636363e-8 Z M 29.104166,0.45986859 26.193749,3.3702851 V 25.733881 l 2.910417,2.910416 z M 0,0.56900919 V 28.535157 L 2.9104166,25.62474 V 3.4794257 Z M 3.3702851,26.193749 0.45986855,29.104166 H 28.535157 L 25.62474,26.193749 Z"
     id="rect8416" />
</svg>

<svg width="110" height="110" version="1.1" viewBox="0 0 29.104166 29.104166" xmlns="http://www.w3.org/2000/svg">
 <path d="m0.45987-1.3636e-8 2.9104 2.9104h22.254l2.9104-2.9104zm28.644 0.45987-2.9104 2.9104v22.364l2.9104 2.9104zm-29.104 0.10914v27.966l2.9104-2.9104v-22.145zm3.3703 25.625-2.9104 2.9104h28.075l-2.9104-2.9104z" fill="#030000"/>
</svg>
